static/card-icons/review.svg

<svg height="682.66669" viewBox="0 0 682.66669 682.66669" width="682.66669" xmlns="http://www.w3.org/2000/svg"><g style="fill:none;stroke:#000;stroke-width:30;stroke-linecap:round;stroke-linejoin:round;stroke-miterlimit:10"><path d="m0 0c39.053-39.053 39.053-102.369 0-141.421-39.052-39.053-102.368-39.053-141.421 0-39.053 39.052-39.053 102.368 0 141.421s102.369 39.053 141.421 0z" transform="matrix(1.3333333 0 0 -1.3333333 481.24478796888 292.68361308291)"/><path d="m0 0h202" transform="matrix(1.3333333 0 0 -1.3333333 99.9999975 182.6666825)"/><path d="m0 0h-179.153" transform="matrix(1.3333333 0 0 -1.3333333 338.87105819489 262.6666805)"/><path d="m0 0h121.004" transform="matrix(1.3333333 0 0 -1.3333333 99.9999975 342.6666785)"/><path d="m0 0h-118.928" transform="matrix(1.3333333 0 0 -1.3333333 258.57026020241 422.6666765)"/><path d="m0 0h-165.703" transform="matrix(1.3333333 0 0 -1.3333333 320.93745864323 502.6666745)"/><path d="m0 0h202" transform="matrix(1.3333333 0 0 -1.3333333 99.9999975 582.6666725)"/><path d="m0 0h-140v42c0 11.046 8.954 20 20 20h100c11.046 0 20-8.954 20-20z" transform="matrix(1.3333333 0 0 -1.3333333 327.9999918 102.6666845)"/><path d="m0 0h61c16.568 0 30-13.432 30-30v-124.825" transform="matrix(1.3333333 0 0 -1.3333333 327.9999918 62.6666855)"/><path d="m0 0h-61c-16.568 0-30-13.432-30-30v-390c0-16.568 13.432-30 30-30h262c16.568 0 30 13.432 30 30v88.379" transform="matrix(1.3333333 0 0 -1.3333333 141.3333298 62.6666855)"/><path d="m0 0c-11.716-11.716-30.71-11.716-42.426 0l-42.923 42.922c-11.441 11.442-11.441 29.993 0 41.434l.993.993c11.441 11.441 29.992 11.441 41.434 0l42.922-42.923c11.716-11.716 11.716-30.71 0-42.426z" transform="matrix(1.3333333 0 0 -1.3333333 650.95051705957 650.95053745957)"/><path d="m0 0-42.427 42.427" transform="matrix(1.3333333 0 0 -1.3333333 537.81385322132 537.81387362132)"/><path d="m0 0-56.568-56.568-28.285 28.284" transform="matrix(1.3333333 0 0 -1.3333333 443.53252224502 349.25267833535)"/></g></svg>

<?xml version="1.0" encoding="UTF-8" standalone="no"?>
<!-- Created with Inkscape (http://www.inkscape.org/) -->

<svg
   version="1.1"
   id="svg3099"
   xml:space="preserve"
   width="682.66669"
   height="682.66669"
   viewBox="0 0 682.66669 682.66669"
   xmlns="http://www.w3.org/2000/svg"
   xmlns:svg="http://www.w3.org/2000/svg"><defs
     id="defs3103"><clipPath
       clipPathUnits="userSpaceOnUse"
       id="clipPath3113"><path
         d="M 0,512 H 512 V 0 H 0 Z"
         id="path3111" /></clipPath></defs><g
     id="g3105"
     transform="matrix(1.3333333,0,0,-1.3333333,0,682.66667)"><g
       id="g3107"><g
         id="g3109"
         clipPath="url(#clipPath3113)"><g
           id="g3115"
           transform="translate(360.9336,292.4873)"><path
             d="m 0,0 c 39.053,-39.053 39.053,-102.369 0,-141.421 -39.052,-39.053 -102.368,-39.053 -141.421,0 -39.053,39.052 -39.053,102.368 0,141.421 C -102.368,39.053 -39.052,39.053 0,0 Z"
             style="fill:none;stroke:#000000;stroke-width:30;stroke-linecap:round;stroke-linejoin:round;stroke-miterlimit:10;stroke-dasharray:none;stroke-opacity:1"
             id="path3117" /></g><g
           id="g3119"
           transform="translate(75,375)"><path
             d="M 0,0 H 202"
             style="fill:none;stroke:#000000;stroke-width:30;stroke-linecap:round;stroke-linejoin:round;stroke-miterlimit:10;stroke-dasharray:none;stroke-opacity:1"
             id="path3121" /></g><g
           id="g3123"
           transform="translate(254.1533,315)"><path
             d="M 0,0 H -179.153"
             style="fill:none;stroke:#000000;stroke-width:30;stroke-linecap:round;stroke-linejoin:round;stroke-miterlimit:10;stroke-dasharray:none;stroke-opacity:1"
             id="path3125" /></g><g
           id="g3127"
           transform="translate(75,255)"><path
             d="M 0,0 H 121.004"
             style="fill:none;stroke:#000000;stroke-width:30;stroke-linecap:round;stroke-linejoin:round;stroke-miterlimit:10;stroke-dasharray:none;stroke-opacity:1"
             id="path3129" /></g><g
           id="g3131"
           transform="translate(193.9277,195)"><path
             d="M 0,0 H -118.928"
             style="fill:none;stroke:#000000;stroke-width:30;stroke-linecap:round;stroke-linejoin:round;stroke-miterlimit:10;stroke-dasharray:none;stroke-opacity:1"
             id="path3133" /></g><g
           id="g3135"
           transform="translate(240.7031,135)"><path
             d="M 0,0 H -165.703"
             style="fill:none;stroke:#000000;stroke-width:30;stroke-linecap:round;stroke-linejoin:round;stroke-miterlimit:10;stroke-dasharray:none;stroke-opacity:1"
             id="path3137" /></g><g
           id="g3139"
           transform="translate(75,75)"><path
             d="M 0,0 H 202"
             style="fill:none;stroke:#000000;stroke-width:30;stroke-linecap:round;stroke-linejoin:round;stroke-miterlimit:10;stroke-dasharray:none;stroke-opacity:1"
             id="path3141" /></g><g
           id="g3143"
           transform="translate(246,435)"><path
             d="m 0,0 h -140 v 42 c 0,11.046 8.954,20 20,20 H -20 C -8.954,62 0,53.046 0,42 Z"
             style="fill:none;stroke:#000000;stroke-width:30;stroke-linecap:round;stroke-linejoin:round;stroke-miterlimit:10;stroke-dasharray:none;stroke-opacity:1"
             id="path3145" /></g><g
           id="g3147"
           transform="translate(246,465)"><path
             d="M 0,0 H 61 C 77.568,0 91,-13.432 91,-30 V -154.825"
             style="fill:none;stroke:#000000;stroke-width:30;stroke-linecap:round;stroke-linejoin:round;stroke-miterlimit:10;stroke-dasharray:none;stroke-opacity:1"
             id="path3149" /></g><g
           id="g3151"
           transform="translate(106,465)"><path
             d="m 0,0 h -61 c -16.568,0 -30,-13.432 -30,-30 v -390 c 0,-16.568 13.432,-30 30,-30 h 262 c 16.568,0 30,13.432 30,30 v 88.379"
             style="fill:none;stroke:#000000;stroke-width:30;stroke-linecap:round;stroke-linejoin:round;stroke-miterlimit:10;stroke-dasharray:none;stroke-opacity:1"
             id="path3153" /></g><g
           id="g3155"
           transform="translate(488.2129,23.7871)"><path
             d="m 0,0 v 0 c -11.716,-11.716 -30.71,-11.716 -42.426,0 l -42.923,42.922 c -11.441,11.442 -11.441,29.993 0,41.434 l 0.993,0.993 c 11.441,11.441 29.992,11.441 41.434,0 L 0,42.426 C 11.716,30.71 11.716,11.716 0,0 Z"
             style="fill:none;stroke:#000000;stroke-width:30;stroke-linecap:round;stroke-linejoin:round;stroke-miterlimit:10;stroke-dasharray:none;stroke-opacity:1"
             id="path3157" /></g><g
           id="g3159"
           transform="translate(403.3604,108.6396)"><path
             d="M 0,0 -42.427,42.427"
             style="fill:none;stroke:#000000;stroke-width:30;stroke-linecap:round;stroke-linejoin:round;stroke-miterlimit:10;stroke-dasharray:none;stroke-opacity:1"
             id="path3161" /></g><g
           id="g3163"
           transform="translate(332.6494,250.0605)"><path
             d="m 0,0 -56.568,-56.568 -28.285,28.284"
             style="fill:none;stroke:#000000;stroke-width:30;stroke-linecap:round;stroke-linejoin:round;stroke-miterlimit:10;stroke-dasharray:none;stroke-opacity:1"
             id="path3165" /></g></g></g></g></svg>
